X: 183
T: Bag of Spuds
T: Sligo Dandy
S: Ceol Rince na h'Eireann Vol.1
R: reel
L: 1/8
M: C|
K: Emin
A2 eA cAeA | ABcd ((3efe) dB | G2 dG BGdB | GB ~B2 GBdB | 
A2 eA cAeA|ABcd ((3efe ) dB | ABcd eg ~g2 | dBGA BA A :|
|: a2 ea ~a2 ea | agbg agef | ((3gfe) dc BGBd | gfga bgea |
a2 ea a2 ((3efg) | agbg agef | gedc BGBd|1 gedB BA A2 :|2 gf{a}ge dBGB ||
